public/images/brands/uideck-light.svg

<svg fill="none" height="27" viewBox="0 0 103 27" width="103" xmlns="http://www.w3.org/2000/svg" xmlns:xlink="http://www.w3.org/1999/xlink"><linearGradient id="a" gradientUnits="userSpaceOnUse" x1="19.9084" x2="4.12143" y1="24.1641" y2="-2.44521"><stop offset="0" stop-color="#fff" stop-opacity=".7"/><stop offset="1" stop-color="#fff" stop-opacity=".61"/><stop offset="1" stop-color="#fff" stop-opacity=".42"/></linearGradient><linearGradient id="b" gradientUnits="userSpaceOnUse" x1="2.19868" x2="5.9157" y1="4.53212" y2="-.064233"><stop offset="0" stop-color="#fff"/><stop offset=".327273" stop-color="#fff" stop-opacity=".65"/><stop offset="1" stop-color="#fff" stop-opacity=".2"/></linearGradient><linearGradient id="c" gradientUnits="userSpaceOnUse" x1="31.5001" x2="28.672" y1="17.0999" y2="27.8663"><stop offset="0" stop-color="#fff" stop-opacity="0"/><stop offset="1" stop-color="#fff" stop-opacity=".18"/></linearGradient><clipPath id="d"><path d="m0 0h102.6v27h-102.6z"/></clipPath><g clip-path="url(#d)"><path d="m94.4408 16.4883 8.1092-9.89853h-3.9805l-7.2709 8.87313v-.0568l-3.2949 4.0432-.7168.8797c-.0205.0351-.0404.0711-.0616.1061l-1.2353 1.5074c-.2291.2105-.4712.4061-.7264.5832-1.0834.7514-2.3789 1.1881-3.7873 1.1885v.0515c-.9371-.0016-1.8222-.1958-2.6293-.5464-1.2141-.5278-2.2517-1.4127-2.9829-2.5248-.7305-1.1138-1.156-2.445-1.1566-3.8926 0-.9664.1894-1.8783.5314-2.7103.5137-1.2484 1.3749-2.3146 2.4576-3.0661 1.0835-.751 2.379-1.18749 3.788-1.18811 1.4891.00062 2.8537.48851 3.9727 1.32061l1.7866-2.53388c-1.6149-1.20496-3.6129-1.91728-5.7593-1.91686-1.3522 0-2.6477.28267-3.8242.79414-1.7647.76708-3.2613 2.04522-4.3208 3.6553-1.0589 1.609-1.6786 3.5599-1.6779 5.6452 0 .0344.0027.0694.0027.1042h-.0533c0 .9654-.1895 1.8779-.5322 2.7099-.5137 1.2475-1.3741 2.3144-2.4562 3.0655-1.0837.7509-2.3796 1.1878-3.7881 1.1886-.9405-.0005-1.8277-.1949-2.6378-.5471-1.2139-.5271-2.2517-1.4123-2.9834-2.5246-.342-.5214-.6168-1.0917-.8124-1.6985-.1261-.0634-.2622-.1347-.4063-.2137-.6942-.382-1.5642-.9395-2.2777-1.6711-.2989-.3073-.5668-.6109-.8071-.9046.0158.1958.025.3943.025.5956 0 .9654-.189 1.8779-.5319 2.7099-.5129 1.2475-1.3746 2.3144-2.4567 3.0655-1.0837.7509-2.3796 1.1878-3.7879 1.1886-.9403-.0005-1.8278-.1949-2.6379-.5471-1.2142-.5271-2.2518-1.4123-2.9827-2.5246-.7312-1.1135-1.1563-2.4454-1.1566-3.8923 0-.9659.1896-1.8785.5319-2.7108.513-1.2477 1.3745-2.3139 2.4568-3.0654 1.0837-.7509 2.3791-1.18804 3.7885-1.18832.9395 0 1.8272.19512 2.6373.54672 1.2143.5275 2.2517 1.4124 2.9829 2.5246.0165.0254.0321.0509.0481.0766l.0047-.0018.0002.0022.0046.0115c.0003.0017.0019.0047.0026.0072.0282.0444.0544.0907.0815.1354.0683.1579.2045.4572.4196.8478.0217.039.0448.0801.068.1213.0176.0434.0373.0857.0539.1293.1998.3346.4543.7191.7686 1.1315.0172.0227.033.0448.0505.0672.2749.3633.598.7422.968 1.1136.0023.0027.0045.0049.0065.007.0029.0031.0059.0054.0086.0086.0587.0589.1179.1167.1793.1747.024.0223.0476.0447.0718.0668.3876.3619.8224.7118 1.3152 1.0261.5537.3536 1.1776.6606 1.8684.8814.6911.2214 1.4489.3555 2.2587.3683h.001c.0699.0011.1382.0019.2063.0019 1.3052.0003 2.4755-.2094 3.5031-.5828.7712-.2795 1.4599-.6499 2.0643-1.0789.907-.6447 1.6225-1.4174 2.1799-2.2093.5575-.7934.959-1.6065 1.2517-2.357.2237-.5744.3386-1.1451.3386-1.6915 0-.3145-.0376-.618-.108-.9009-.1225-.49536-.3414-.9185-.5849-1.25143-.368-.50172-.7797-.8143-1.0998-1.01714-.3236-.20181-.5643-.29513-.6362-.32179l-.0054.01766c-1.2834-.63035-2.7218-.98481-4.2334-.98453-1.3523-.00028-2.6482.28197-3.8244.79366-1.1511.50081-2.1871 1.21922-3.0637 2.10503v-9.6937143h-3.045v8.4436843c.1861.18304.3794.3816.58.59836.7704.83222 1.2695 1.63641 1.7075 2.37611.4389.7417.8178 1.4139 1.3502 2.0274.0808.0939.1667.1864.2563.2782.5232-1.0519 1.302-1.9521 2.2509-2.6107 1.0828-.7509 2.3791-1.18804 3.7882-1.18832 1.2353.00028 2.3825.33622 3.3788.92592l.012-.0217c.0652.0523.1247.1129.1579.165.0246.0367.0403.0685.052.1051.0109.0366.0212.0793.0212.1541 0 .1003-.0192.2666-.1208.529-.1913.4915-.4442 1.01-.7679 1.5024-.2428.3693-.5254.7244-.8513 1.0478-.491.4855-1.0767.9023-1.8117 1.208-.7348.305-1.6248.5019-2.7401.5022-.0523 0-.1043-.0003-.1564-.0011h-.0007c-.4607-.008-.8755-.0745-1.2609-.1841-.672-.192-1.2558-.5187-1.7688-.9202-.1792-.1401-.3484-.2905-.5086-.446 0-.0008.0003-.0027.0013-.0042-.0769-.0728-.1506-.1465-.2225-.22-.4211-.4462-.7652-.9182-1.0176-1.3247-.1927-.3094-.3909-.5672-.4805-.7506-.0447-.0922-.1338-.2351-.1338-.2351-.4556-.7721-.9292-1.5568-1.686-2.37513-.0099-.01087-.0198-.0198-.0287-.03074v.00055c-.389-.3771-.8059-.72332-1.2506-1.03188-1.5658-1.08776-3.4637-1.72516-5.4925-1.72433-1.3524-.00028-2.6479.28197-3.8243.79366-1.7648.76756-3.2616 2.04556-4.3205 3.65537-1.0587 1.609-1.6789 3.5596-1.6783 5.6452-.0006 1.3891.2746 2.721.7724 3.9291.7466 1.8138 1.9902 3.3516 3.5573 4.4397 1.5658 1.0886 3.4638 1.7256 5.4934 1.7252 1.3518.0001 2.6479-.2826 3.8239-.7943 1.7647-.7673 3.2611-2.0451 4.3205-3.655.0662-.1016.1311-.2039.1941-.3082.7319 1.2051 1.7016 2.2387 2.8438 3.0323 1.5661 1.0886 3.4641 1.7256 5.4939 1.7252 1.3513.0001 2.6474-.2826 3.8237-.7943 1.7633-.7673 3.2613-2.0451 4.3194-3.655.0739-.1115.145-.2249.2134-.3404.7271 1.174 1.6799 2.1826 2.801 2.9603 1.5657 1.0882 3.4631 1.7251 5.4925 1.7249 1.3509.0002 2.6485-.2823 3.8236-.7939 1.0999-.4778 2.0944-1.1541 2.9446-1.9853v2.8181h3.0459v-6.612l1.1429-1.394 6.2531 8.006h3.9054zm-3.1422-16.4714543h-3.0459v16.7364543c0 .454-.0431.8957-.1245 1.3239l3.1704-3.8899z" fill="#fff"/><path d="m17.4517 7.19654v8.20246c0 3.8211-2.2829 6.1291-5.7436 6.1291-3.46104 0-5.89073-2.308-5.89073-6.1291v-15.399h-5.81737v15.399c0 6.9994 4.56508 11.3506 11.7081 11.3506 7.1058 0 11.561-4.3512 11.561-11.3506v-15.399h-.1022c-3.0678 1.01223-5.3565 3.80582-5.7152 7.19654z" fill="url(#a)"/><path d="m28.2491 0h-.0999v26.4851h5.8175v-19.28323c-.055-2.94321-2.6479-6.18899-5.7176-7.20187z" fill="#fff"/><path d="m17.4517 7.19654v8.20246c0 .0049-.0003.0098-.0003.0153.0014.0816.0057.1625.0057.2447 0 5.5241-4.0487 10.074-9.26228 10.694 1.08503.2597 2.25868.3966 3.51328.3966 7.1058 0 11.5611-4.3512 11.5611-11.3506v-15.399h-.1022c-3.0679 1.01223-5.3566 3.80582-5.7153 7.19654z" fill="#fff"/><path d="m5.81737 7.20983v-7.20983h-5.81737v.00116862c3.0929 1.01405138 5.41055 3.80699138 5.81737 7.20866138z" fill="url(#b)"/><path d="m28.1492 18.6365v7.8485h5.7465c-3.2046-1.162-5.5415-4.2108-5.7465-7.8485z" fill="url(#c)"/></g></svg>

<svg width="103" height="27" viewBox="0 0 103 27" fill="none" xmlns="http://www.w3.org/2000/svg">
<g clip-path="url(#clip0_1003_1723)">
<path d="M94.4408 16.4883L102.55 6.58977H98.5695L91.2986 15.4629V15.4061L88.0037 19.4493L87.2869 20.329C87.2664 20.3641 87.2465 20.4001 87.2253 20.4351L85.99 21.9425C85.7609 22.153 85.5188 22.3486 85.2636 22.5257C84.1802 23.2771 82.8847 23.7138 81.4763 23.7142V23.7657C80.5392 23.7641 79.6541 23.5699 78.847 23.2193C77.6329 22.6915 76.5953 21.8066 75.8641 20.6945C75.1336 19.5807 74.7081 18.2495 74.7075 16.8019C74.7075 15.8355 74.8969 14.9236 75.2389 14.0916C75.7526 12.8432 76.6138 11.777 77.6965 11.0255C78.78 10.2745 80.0755 9.83801 81.4845 9.83739C82.9736 9.83801 84.3382 10.3259 85.4572 11.158L87.2438 8.62412C85.6289 7.41916 83.6309 6.70684 81.4845 6.70726C80.1323 6.70726 78.8368 6.98993 77.6603 7.5014C75.8956 8.26848 74.399 9.54662 73.3395 11.1567C72.2806 12.7657 71.6609 14.7166 71.6616 16.8019C71.6616 16.8363 71.6643 16.8713 71.6643 16.9061H71.611C71.611 17.8715 71.4215 18.784 71.0788 19.616C70.5651 20.8635 69.7047 21.9304 68.6226 22.6815C67.5389 23.4324 66.243 23.8693 64.8345 23.8701C63.894 23.8696 63.0068 23.6752 62.1967 23.323C60.9828 22.7959 59.945 21.9107 59.2133 20.7984C58.8713 20.277 58.5965 19.7067 58.4009 19.0999C58.2748 19.0365 58.1387 18.9652 57.9946 18.8862C57.3004 18.5042 56.4304 17.9467 55.7169 17.2151C55.418 16.9078 55.1501 16.6042 54.9098 16.3105C54.9256 16.5063 54.9348 16.7048 54.9348 16.9061C54.9348 17.8715 54.7458 18.784 54.4029 19.616C53.89 20.8635 53.0283 21.9304 51.9462 22.6815C50.8625 23.4324 49.5666 23.8693 48.1583 23.8701C47.218 23.8696 46.3305 23.6752 45.5204 23.323C44.3062 22.7959 43.2686 21.9107 42.5377 20.7984C41.8065 19.6849 41.3814 18.353 41.3811 16.9061C41.3811 15.9402 41.5707 15.0276 41.913 14.1953C42.426 12.9476 43.2875 11.8814 44.3698 11.1299C45.4535 10.379 46.7489 9.94186 48.1583 9.94158C49.0978 9.94158 49.9855 10.1367 50.7956 10.4883C52.0099 11.0158 53.0473 11.9007 53.7785 13.0129C53.795 13.0383 53.8106 13.0638 53.8266 13.0895L53.8313 13.0877L53.8315 13.0899L53.8361 13.1014C53.8364 13.1031 53.838 13.1061 53.8387 13.1086C53.8669 13.153 53.8931 13.1993 53.9202 13.244C53.9885 13.4019 54.1247 13.7012 54.3398 14.0918C54.3615 14.1308 54.3846 14.1719 54.4078 14.2131C54.4254 14.2565 54.4451 14.2988 54.4617 14.3424C54.6615 14.677 54.916 15.0615 55.2303 15.4739C55.2475 15.4966 55.2633 15.5187 55.2808 15.5411C55.5557 15.9044 55.8788 16.2833 56.2488 16.6547C56.2511 16.6574 56.2533 16.6596 56.2553 16.6617C56.2582 16.6648 56.2612 16.6671 56.2639 16.6703C56.3226 16.7292 56.3818 16.787 56.4432 16.845C56.4672 16.8673 56.4908 16.8897 56.515 16.9118C56.9026 17.2737 57.3374 17.6236 57.8302 17.9379C58.3839 18.2915 59.0078 18.5985 59.6986 18.8193C60.3897 19.0407 61.1475 19.1748 61.9573 19.1876H61.9583C62.0282 19.1887 62.0965 19.1895 62.1646 19.1895C63.4698 19.1898 64.6401 18.9801 65.6677 18.6067C66.4389 18.3272 67.1276 17.9568 67.732 17.5278C68.639 16.8831 69.3545 16.1104 69.9119 15.3185C70.4694 14.5251 70.8709 13.712 71.1636 12.9615C71.3873 12.3871 71.5022 11.8164 71.5022 11.27C71.5022 10.9555 71.4646 10.652 71.3942 10.3691C71.2717 9.87374 71.0528 9.4506 70.8093 9.11767C70.4413 8.61595 70.0296 8.30337 69.7095 8.10053C69.3859 7.89872 69.1452 7.8054 69.0733 7.77874L69.0679 7.7964C67.7845 7.16605 66.3461 6.81159 64.8345 6.81187C63.4822 6.81159 62.1863 7.09384 61.0101 7.60553C59.859 8.10634 58.823 8.82475 57.9464 9.71056V0.0168457H54.9014V8.46053C55.0875 8.64357 55.2808 8.84213 55.4814 9.05889C56.2518 9.89111 56.7509 10.6953 57.1889 11.435C57.6278 12.1767 58.0067 12.8489 58.5391 13.4624C58.6199 13.5563 58.7058 13.6488 58.7954 13.7406C59.3186 12.6887 60.0974 11.7885 61.0463 11.1299C62.1291 10.379 63.4254 9.94186 64.8345 9.94158C66.0698 9.94186 67.217 10.2778 68.2133 10.8675L68.2253 10.8458C68.2905 10.8981 68.35 10.9587 68.3832 11.0108C68.4078 11.0475 68.4235 11.0793 68.4352 11.1159C68.4461 11.1525 68.4564 11.1952 68.4564 11.27C68.4564 11.3703 68.4372 11.5366 68.3356 11.799C68.1443 12.2905 67.8914 12.809 67.5677 13.3014C67.3249 13.6707 67.0423 14.0258 66.7164 14.3492C66.2254 14.8347 65.6397 15.2515 64.9047 15.5572C64.1699 15.8622 63.2799 16.0591 62.1646 16.0594C62.1123 16.0594 62.0603 16.0591 62.0082 16.0583H62.0075C61.5468 16.0503 61.132 15.9838 60.7466 15.8742C60.0746 15.6822 59.4908 15.3555 58.9778 14.954C58.7986 14.8139 58.6294 14.6635 58.4692 14.508C58.4692 14.5072 58.4695 14.5053 58.4705 14.5038C58.3936 14.431 58.3199 14.3573 58.248 14.2838C57.8269 13.8376 57.4828 13.3656 57.2304 12.9591C57.0377 12.6497 56.8395 12.3919 56.7499 12.2085C56.7052 12.1163 56.6161 11.9734 56.6161 11.9734C56.1605 11.2013 55.6869 10.4166 54.9301 9.59827C54.9202 9.5874 54.9103 9.57847 54.9014 9.56753V9.56808C54.5124 9.19098 54.0955 8.84476 53.6508 8.5362C52.085 7.44844 50.1871 6.81104 48.1583 6.81187C46.8059 6.81159 45.5104 7.09384 44.334 7.60553C42.5692 8.37309 41.0724 9.65109 40.0135 11.2609C38.9548 12.8699 38.3346 14.8205 38.3352 16.9061C38.3346 18.2952 38.6098 19.6271 39.1076 20.8352C39.8542 22.649 41.0978 24.1868 42.6649 25.2749C44.2307 26.3635 46.1287 27.0005 48.1583 27.0001C49.5101 27.0002 50.8062 26.7175 51.9822 26.2058C53.7469 25.4385 55.2433 24.1607 56.3027 22.5508C56.3689 22.4492 56.4338 22.3469 56.4968 22.2426C57.2287 23.4477 58.1984 24.4813 59.3406 25.2749C60.9067 26.3635 62.8047 27.0005 64.8345 27.0001C66.1858 27.0002 67.4819 26.7175 68.6582 26.2058C70.4215 25.4385 71.9195 24.1607 72.9776 22.5508C73.0515 22.4393 73.1226 22.3259 73.191 22.2104C73.9181 23.3844 74.8709 24.393 75.992 25.1707C77.5577 26.2589 79.4551 26.8958 81.4845 26.8956C82.8354 26.8958 84.133 26.6133 85.3081 26.1017C86.408 25.6239 87.4025 24.9476 88.2527 24.1164V26.9345H91.2986V20.3225L92.4415 18.9285L98.6946 26.9345H102.6L94.4408 16.4883ZM91.2986 0.0168457H88.2527V16.7533C88.2527 17.2073 88.2096 17.649 88.1282 18.0772L91.2986 14.1873V0.0168457Z" fill="white"/>
<path d="M17.4517 7.19654V15.399C17.4517 19.2201 15.1688 21.5281 11.7081 21.5281C8.24706 21.5281 5.81737 19.2201 5.81737 15.399V0H0V15.399C0 22.3984 4.56508 26.7496 11.7081 26.7496C18.8139 26.7496 23.2691 22.3984 23.2691 15.399V0H23.1669C20.0991 1.01223 17.8104 3.80582 17.4517 7.19654Z" fill="url(#paint0_linear_1003_1723)"/>
<path d="M28.2491 0H28.1492V26.4851H33.9667V7.20187C33.9117 4.25866 31.3188 1.01288 28.2491 0Z" fill="white"/>
<path d="M17.4517 7.19654V15.399C17.4517 15.4039 17.4514 15.4088 17.4514 15.4143C17.4528 15.4959 17.4571 15.5768 17.4571 15.659C17.4571 21.1831 13.4084 25.733 8.19482 26.353C9.27985 26.6127 10.4535 26.7496 11.7081 26.7496C18.8139 26.7496 23.2692 22.3984 23.2692 15.399V0H23.167C20.0991 1.01223 17.8104 3.80582 17.4517 7.19654Z" fill="white"/>
<path d="M5.81737 7.20983V0H0V0.00116862C3.0929 1.01522 5.41055 3.80816 5.81737 7.20983Z" fill="url(#paint1_linear_1003_1723)"/>
<path d="M28.1492 18.6365V26.485H33.8957C30.6911 25.323 28.3542 22.2742 28.1492 18.6365Z" fill="url(#paint2_linear_1003_1723)"/>
</g>
<defs>
<linearGradient id="paint0_linear_1003_1723" x1="19.9084" y1="24.1641" x2="4.12143" y2="-2.44521" gradientUnits="userSpaceOnUse">
<stop stop-color="white" stop-opacity="0.7"/>
<stop offset="1" stop-color="white" stop-opacity="0.61"/>
<stop offset="1" stop-color="white" stop-opacity="0.42"/>
</linearGradient>
<linearGradient id="paint1_linear_1003_1723" x1="2.19868" y1="4.53212" x2="5.9157" y2="-0.064233" gradientUnits="userSpaceOnUse">
<stop stop-color="white"/>
<stop offset="0.327273" stop-color="white" stop-opacity="0.65"/>
<stop offset="1" stop-color="white" stop-opacity="0.2"/>
</linearGradient>
<linearGradient id="paint2_linear_1003_1723" x1="31.5001" y1="17.0999" x2="28.672" y2="27.8663" gradientUnits="userSpaceOnUse">
<stop stop-color="white" stop-opacity="0"/>
<stop offset="1" stop-color="white" stop-opacity="0.18"/>
</linearGradient>
<clipPath id="clip0_1003_1723">
<rect width="102.6" height="27" fill="white"/>
</clipPath>
</defs>
</svg>
